!!!!SEGMENT: pl-kk--kk-i-382--043-001_singenberger-johann-baptist--msza-na-czesc-sw-stanislawa-kyrie.krn
!!!cenid: 18xx:1537
!!!COM: Singenberger, Johann Baptist
!!!COM-rismID: pe30008527
!!!CDT: 1848-1924
!!!CNT:
!!!OPR: Msza na cześć św. Stanisława
!!!OTL: Kyrie
!!!OMV: 001
!!!PDT:
!!!AGN: Sacred; Mass
!!!SMS-siglum: PL-Kk
!!!SMS-shelfmark: Kk.I.382
!!!SMS-shelfwork: 029-001 M
!!!SMS-variant:
!!!SMS-altvar:
!!!NIFC-rismSourceID: 1001139027
!!!NIFC-rismChildID: 1001140237
!!!NIFC-islandoraID: pl-kk:6162
!!!URL-pdf-islandora: https://repozytorium.nifc.pl/islandora/object/pl-kk%3A6162/datastream/PDF/view
!!!URL-scan: https://polish.musicsources.pl/pl/lokalizacje/galeria/rekopisy/5994 @EN{Scan on Polish Music Sources Website} @PL{Skany w portalu Dziedzictwo Muzyki Polskiej w otwartym dostępie}
!!!IIIF:
!!!ONB-nifc: UWAGA: obsada: S (T 1), T 2, B 2; S (T 1): skan 0034-0035,T 2: skan 0137, B 2: skan 0285. Osobne części Mszy: Kyrie, Gloria, Credo, Sanctus, Benedictus, Agnus Dei
!!!AIN: 1 bass 2 tenor
!!!key:
**kern	**text	**dynam	**kern	**text	**dynam	**kern	**text	**dynam
*part3	*part3	*part3	*part2	*part2	*part2	*part1	*part1	*part1
*Ibass	*	*	*Itenor	*	*	*Itenor	*	*
*I"Basso II	*	*	*I"Tenore I	*	*	*I"Soprano vel Tenore I.	*	*
*I'B 2	*	*	*I'T 2	*	*	*I'S (T 1)	*	*
*clefF4	*	*	*clefG2	*	*	*clefG2	*	*
*k[b-]	*	*	*k[b-]	*	*	*k[b-]	*	*
*F:	*	*	*F:	*	*	*F:	*	*
*M4/4	*	*	*M4/4	*	*	*M4/4	*	*
*met(c)	*	*	*met(c)	*	*	*met(c)	*	*
=1	=1	=1	=1	=1	=1	=1	=1	=1
*2\right	*	*	*2\right	*	*	*2\right	*	*
!LO:TX:b:t=Kyrie	!	!	!LO:TX:b:t=Kyrie	!	!	!LO:TX:b:t=Kyrie	!	!
!LO:TX:b:t=P:problem=napis "Kyrie" na pięciolinii przed kluczem	!	!	!LO:TX:b:t=P:problem=napis "Kyrie" na pięciolinii przed kluczem	!	!	!LO:TX:b:t=P:problem=napis "Kyrie" na pięciolinii przed kluczem	!	!
!LO:TX:a:t=Msza na cześć Stgo Stanisława na 3 mez&colon; głosy J. Singenberger	!	!	!LO:TX:a:t=Msza na cześć Stgo Stanisława na 3 męz&colon; głosy J. Singenberger	!	!	!LO:TX:a:t=Msza na czesc Stgo Stanisława na 3 męz&colon; głos&colon; J Singenberger	!	!
!LO:TX:a:t=Andante	!	!	!LO:TX:a:t=Andante	!	!LO:DY:b:rj	!LO:TX:a:t=Andante	!	!LO:DY:a:rj
!	!	!LO:DY:b:rj	!LO:TX:t=P:problem=2/left&colon; global	!	!	!	!	!
2.F\	Ky-	mf	2.a/	Ky-	mf	2.cc\	Ky-	mf
!LO:TX:t=P:problem=all\right&colon; global	!	!	!LO:TX:t=P:problem=all/left&colon; global	!	!	!LO:TX:t=P:problem=all/left&colon; global	!	!
4F\	-ri-	.	4a/	-ri-	.	4cc\	-ri-	.
=2	=2	=2	=2	=2	=2	=2	=2	=2
4F\	-e	.	4a/	-e	.	4cc\	-e	.
4E\	e-	.	4g/	e-	.	4cc\	e-	.
4D\	-lei-	.	[>2b-\	-lei-	.	[>2dd\	-le-	.
4E\	.	.	.	.	.	.	.	.
=3	=3	=3	=3	=3	=3	=3	=3	=3
1F	son	.	4b-\]	.	.	4dd\]	.	.
.	.	.	4a/	-i-	.	4cc\	-i-	.
.	.	.	2a/	-son	.	4cc\	-son	.
.	.	.	.	.	.	[>4ff\	Ky-	.
=4	=4	=4	=4	=4	=4	=4	=4	=4
4D\	Ky-	.	4.a/	Ky-	.	4ff\]	.	.
4F\	ri-	.	.	.	.	4cc\	-ri-	.
.	.	.	8a/	-ri-	.	.	.	.
!LO:TX:t=P:problem=all/left&colon; global	!	!	!	!	!	!	!	!
4BB-/	-e	.	4f/	-e	.	4dd\	-e	.
4AA/	e-	.	4f/	e-	.	4cc\	e-	.
!	!	!	!LO:LB:g=original	!	!	!	!	!
=5	=5	=5	=5	=5	=5	=5	=5	=5
!	!	!	!	!	!LO:HP:a	!	!	!
4GG/	-lei-	.	(<8d/L	-le-	>	4b-\	-lei-	.
.	.	.	8e/J)	.	]	.	.	.
8AA/L	-i-	.	2f/	-i-	.	4a/	-i-	.
8BB-/J	.	.	.	.	.	.	.	.
!LO:TX:t=P:problem=2/left&colon; global	!	!	!	!	!	!LO:TX:t=P:problem=2/left&colon; global	!	!
2C/	son	.	.	.	.	2g/	-son	.
.	.	.	4e/	-son	.	.	.	.
!LO:LB:g=original	!	!	!	!	!	!LO:LB:g=original	!	!
=6	=6	=6	=6	=6	=6	=6	=6	=6
4F\	Ky-	.	4f/	Ky-	.	4a/	Ky-	.
4D\	-ri-	.	4f/	-ri-	.	4b-\	-ri-	.
4AA/	-e	.	4f/	-e	.	4cc\	-e	.
4D\	e-	.	4f/	e-	.	4f/	e-	.
=7	=7	=7	=7	=7	=7	=7	=7	=7
2.C/	-lei-	.	(<4e/	-le-	.	(<4g/	-lei-	.
.	.	.	4f/	.	.	4a/)	.	.
.	.	.	4f/)	.	.	4.g/	.	.
4C/	i-	.	4e/	i-	.	.	.	.
.	.	.	.	.	.	8g/	-i-	.
=8	=8	=8	=8	=8	=8	=8	=8	=8
2.F\	-son	.	2.f/	-son	.	2.a/	-son	.
4r	.	.	4r	.	.	4r	.	.
!	!	!	!	!	!	!LO:TX:i:a:t=piu lento	!	!
.	.	.	.	.	.	.	.	.
=9	=9	=9	=9	=9	=9	=9	=9	=9
!LO:TX:i:a:t=piu lento	!	!	!	!	!	!	!	!
!LO:TX:a:t=3	!	!	!	!	!LO:DY:a	!	!	!LO:DY:b:rj
!LO:TX:a:t=P:problem=podwójna belka jako pauza wielotaktowa	!	!	!	!	!	!	!	!
1r	.	.	4e/	Chris-	p	(>1cc	Chris-	p
.	.	.	4g/	.	.	.	.	.
.	.	.	4cc\	-te	.	.	.	.
.	.	.	4bn\	e-	.	.	.	.
!	!	!	!LO:LB:g=original	!	!	!	!	!
=10	=10	=10	=10	=10	=10	=10	=10	=10
1r	.	.	4a/	-le-	.	2ff\)	.	.
.	.	.	4bn\	-i-	.	.	.	.
.	.	.	2cc\	-son	.	4ee\	-te	.
.	.	.	.	.	.	4ee\	e-	.
=11	=11	=11	=11	=11	=11	=11	=11	=11
1r	.	.	4bn\	-Chris-	.	4dd\	-le-	.
.	.	.	2cc\	-te	.	4cc\	.	.
.	.	.	.	.	.	4dd\	.	.
.	.	.	4b\	e-	.	4dd\	-i-	.
!	!	!	!	!	!	!LO:LB:g=original	!	!
=12	=12	=12	=12	=12	=12	=12	=12	=12
!	!	!LO:DY:a	!	!	!	!	!	!
2r	.	mf	2cc\	-lei-	.	2.cc\	-son	.
[>2E\	-Chris-	.	2g/	-son	.	.	.	.
.	.	.	.	.	.	4r	.	.
=13	=13	=13	=13	=13	=13	=13	=13	=13
!	!	!	!	!	!LO:DY:a	!	!	!LO:DY:a:rj
2E\]	.	.	4r	.	mf	2gg\	Chris-	mf
.	.	.	(<4g/	Chris-	.	.	.	.
4F\	-te	.	4a/	.	.	4ff\	-te	.
4D\	e-	.	4bn\)	.	.	4ff\	e-	.
=14	=14	=14	=14	=14	=14	=14	=14	=14
(<2C/	-lei-	.	4cc\	-te	.	(>1ee	-lei-	.
.	.	.	4g/	e-	.	.	.	.
8C/L	.	.	(>2cc\	-lei-	.	.	.	.
8D/	.	.	.	.	.	.	.	.
8E/	.	.	.	.	.	.	.	.
8F/J)	.	.	.	.	.	.	.	.
!LO:LB:g=original	!	!	!LO:LB:g=original	!	!	!	!	!
=15	=15	=15	=15	=15	=15	=15	=15	=15
2G\	.	.	4cc\	.	.	2.dd\)	.	.
.	.	.	8bn\L	.	.	.	.	.
.	.	.	8a\J	.	.	.	.	.
2GG/	-i-	.	4b\)	.	.	.	.	.
.	.	.	4b\	-i-	.	4dd\	-i-	.
=16	=16	=16	=16	=16	=16	=16	=16	=16
2.C/	-son	.	2.cc\	-son	.	2.cc\	-son	.
!LO:TX:i:a:t=Tempo I	!	!	!LO:TX:i:a:t=Tempo Imo	!	!	!LO:TX:i:a:t=tempo primo	!	!
4r	.	.	4r	.	.	4r	.	.
=17||	=17||	=17||	=17||	=17||	=17||	=17||	=17||	=17||
!	!	!LO:DY:b:rj	!	!	!LO:DY:b:rj	!	!	!
2.F\	Ky-	mf	2.a/	Ky-	mf	2.cc\	Ky-	.
4F\	-ri-	.	4a/	-ri-	.	4cc\	-ri-	.
=18	=18	=18	=18	=18	=18	=18	=18	=18
4E\	-e	.	4g/	-e	.	4cc\	-e	.
4F\	e-	.	4a/	e-	.	4cc\	e-	.
(>4BB-/	-lei-	.	4.b-\	-lei-	.	[>4.dd\	-le-	.
4D\	.	.	.	.	.	.	.	.
.	.	.	8b-\	-i-	.	8dd\]	-i-	.
!	!	!	!	!	!	!LO:LB:g=original	!	!
=19	=19	=19	=19	=19	=19	=19	=19	=19
4F\	.	.	4a/	-son	.	2cc\	-son	.
4E\)	i-	.	(<4g/	Ky-	.	.	.	.
!	!	!	!	!	!	!	!	!LO:DY:a:rj
2D\	-son	.	4a/)	.	.	[>2ff\	Ky-	f
.	.	.	4b-\	-ri-	.	.	.	.
!	!	!	!LO:LB:g=original	!	!	!	!	!
=20	=20	=20	=20	=20	=20	=20	=20	=20
!	!	!LO:DY:a:rj	!	!	!	!	!	!
4.C/	-Ky-	f	2.cc\	-e	.	4.ff\]	.	.
8C/	-ri-	.	.	.	.	8ff\	-ri-	.
4C/	-e	.	.	.	.	4ee\	-e	.
4AA/	e-	.	4cc\	e-	.	4ee\	e-	.
!LO:LB:g=original	!	!	!	!	!	!	!	!
=21	=21	=21	=21	=21	=21	=21	=21	=21
2BB-/	-lei-	.	4cc\	-le-	.	2dd\	-lei-	.
.	.	.	4b-\	-i-	.	.	.	.
4F\	-son	.	2a/	-son	.	2cc\	-son	.
(>[>4F\	e-	.	.	.	.	.	.	.
=22	=22	=22	=22	=22	=22	=22	=22	=22
!	!	!	!	!	!LO:DY:b:rj	!	!	!LO:DY:b:rj
4F\]	.	.	2g/	Ky-	p	2cc\	Ky-	p
8E\L	.	.	.	.	.	.	.	.
8D\J	.	.	.	.	.	.	.	.
4E\	.	.	4g/	-ri-	.	4cc\	-ri-	.
4F\)	.	.	4f/	-e	.	4a/	-e	.
=23	=23	=23	=23	=23	=23	=23	=23	=23
!LO:TX:i:a:t=rit.	!	!LO:DY:a:rj	!	!	!	!	!	!
2C/	-lei-	pp	4e/	e-	.	2.g/	le-	.
.	.	.	2f/	-lei-	.	.	.	.
!LO:TX:a:t=P:problem=diminuendolike accent	!	!	!	!	!	!	!	!
2C^>/	-i-	.	.	.	.	.	.	.
.	.	.	4e/	-i-	.	4g/	-i-	.
=24	=24	=24	=24	=24	=24	=24	=24	=24
1F;>	-son	.	1f;>	-son	.	1f;>	-son	.
==	==	==	==	==	==	==	==	==
*-	*-	*-	*-	*-	*-	*-	*-	*-
!!!system-decoration: [(s1,s2,s3)]
!!!RDF**kern: > = above
!!!RDF**kern: < = below
!!!EED: Mateusz Mrugas
!!!EEV: 2021-02-09
!!!ENC: Tomasz Grochalski
!!!END: 2021-01-30
!!!YEC: Copyright 2022 Narodowy Instytut Fryderyka Chopina (https://polishscores.org)
!!!YEM: License CC-BY-4.0 (https://creativecommons.org/licenses/by/4.0)
